dist/assets/icons/cart.svg

<svg width="18" height="16" viewBox="0 0 18 16" fill="none" xmlns="http://www.w3.org/2000/svg">
<path d="M17.8961 3.05166C17.7931 2.91219 17.6273 2.82598 17.4472 2.81871L6.28162 2.36415C5.96126 2.35091 5.69355 2.58451 5.67986 2.88567C5.66624 3.18672 5.91317 3.44109 6.232 3.45403L16.6416 3.87785L14.5949 9.90927H5.48658L3.84103 1.44689C3.80486 1.26142 3.67004 1.10669 3.4841 1.03779L0.788965 0.037775C0.491928 -0.072061 0.156743 0.065738 0.0400874 0.345939C-0.0763672 0.626293 0.0694931 0.943056 0.36637 1.05323L2.76277 1.94238L4.43736 10.5533C4.48784 10.8122 4.72671 11.0002 5.0055 11.0002H5.28328L4.64896 12.6643C4.59587 12.8037 4.61775 12.9585 4.7081 13.0796C4.79833 13.2007 4.94508 13.2728 5.10173 13.2728H5.54664C5.27095 13.5625 5.10173 13.9441 5.10173 14.3637C5.10173 15.266 5.87913 16.0001 6.83433 16.0001C7.78953 16.0001 8.56693 15.266 8.56693 14.3637C8.56693 13.9441 8.39771 13.5625 8.12206 13.2728H11.8996C11.6237 13.5625 11.4546 13.9441 11.4546 14.3637C11.4546 15.266 12.2318 16.0001 13.1872 16.0001C14.1426 16.0001 14.9198 15.266 14.9198 14.3637C14.9198 13.9441 14.7506 13.5625 14.475 13.2728H15.016C15.2819 13.2728 15.4973 13.0693 15.4973 12.8182C15.4973 12.5671 15.2819 12.3637 15.016 12.3637H5.78652L6.30624 11H15.016C15.2672 11 15.4894 10.8468 15.5659 10.6211L17.9723 3.53C18.0275 3.36816 17.9992 3.19121 17.8961 3.05166ZM6.83437 15.0912C6.40968 15.0912 6.0643 14.765 6.0643 14.3639C6.0643 13.9628 6.40968 13.6366 6.83437 13.6366C7.25906 13.6366 7.6044 13.9628 7.6044 14.3639C7.6044 14.765 7.25906 15.0912 6.83437 15.0912ZM13.1872 15.0912C12.7625 15.0912 12.4171 14.765 12.4171 14.3639C12.4171 13.9628 12.7625 13.6366 13.1872 13.6366C13.6119 13.6366 13.9572 13.9628 13.9572 14.3639C13.9572 14.765 13.6119 15.0912 13.1872 15.0912Z" fill="#1B1A17"/>
</svg>

<svg width="18" height="16" fill="none" xmlns="http://www.w3.org/2000/svg"><path d="M17.896 3.052a.586.586 0 0 0-.449-.233L6.282 2.364c-.32-.013-.588.22-.602.522-.014.3.233.555.552.568l10.41.424-2.047 6.031H5.487L3.84 1.447a.554.554 0 0 0-.357-.41L.79.038A.59.59 0 0 0 .04.347c-.116.28.03.597.326.707l2.397.89 1.674 8.61a.57.57 0 0 0 .568.447h.278l-.634 1.664a.433.433 0 0 0 .06.416.49.49 0 0 0 .393.193h.445c-.276.29-.445.671-.445 1.09 0 .903.777 1.637 1.732 1.637.956 0 1.733-.734 1.733-1.636 0-.42-.17-.802-.445-1.091H11.9c-.276.29-.445.671-.445 1.09 0 .903.777 1.637 1.732 1.637.956 0 1.733-.734 1.733-1.636 0-.42-.17-.802-.445-1.091h.541a.468.468 0 0 0 .481-.455.468.468 0 0 0-.481-.454h-9.23L6.307 11h8.71a.575.575 0 0 0 .55-.379l2.406-7.091a.52.52 0 0 0-.076-.478ZM6.834 15.092c-.424 0-.77-.327-.77-.728 0-.401.346-.727.77-.727.425 0 .77.326.77.727 0 .401-.345.727-.77.727Zm6.353 0c-.425 0-.77-.327-.77-.728 0-.401.345-.727.77-.727.425 0 .77.326.77.727 0 .401-.345.727-.77.727Z" fill="#1B1A17"/></svg>
